static/img/kroki/b76225e6d242040ff290b6738731c89e.svg

<?xml version="1.0" encoding="us-ascii" standalone="no"?><svg xmlns="http://www.w3.org/2000/svg" xmlns:xlink="http://www.w3.org/1999/xlink" contentStyleType="text/css" height="252px" preserveAspectRatio="none" style="width:525px;height:252px;" version="1.1" viewBox="0 0 525 252" width="525px" zoomAndPan="magnify"><defs/><g><!--class azure_machine_learning_registry--><g id="elem_azure_machine_learning_registry"><rect codeLine="23" fill="#3D176E" height="39.7891" id="azure_machine_learning_registry" rx="2.5" ry="2.5" style="stroke:#000D19;stroke-width:0.5;" width="320" x="102.5" y="7"/><ellipse cx="117.5" cy="26.8945" fill="#ADD1B2" rx="11" ry="11" style="stroke:#181818;stroke-width:1.0;"/><path d="M120.4688,32.5352 Q119.8906,32.832 119.25,32.9727 Q118.6094,33.1289 117.9063,33.1289 Q115.4063,33.1289 114.0781,31.4883 Q112.7656,29.832 112.7656,26.707 Q112.7656,23.582 114.0781,21.9258 Q115.4063,20.2695 117.9063,20.2695 Q118.6094,20.2695 119.25,20.4258 Q119.9063,20.582 120.4688,20.8789 L120.4688,23.5977 Q119.8438,23.0195 119.25,22.7539 Q118.6563,22.4727 118.0313,22.4727 Q116.6875,22.4727 116,23.5508 Q115.3125,24.6133 115.3125,26.707 Q115.3125,28.8008 116,29.8789 Q116.6875,30.9414 118.0313,30.9414 Q118.6563,30.9414 119.25,30.6758 Q119.8438,30.3945 120.4688,29.8164 L120.4688,32.5352 Z " fill="#000000"/><text fill="#D9B8FF" font-family="Helvetica" font-size="17" lengthAdjust="spacing" textLength="278" x="136.5" y="32.7798">azure_machine_learning_registry</text></g><!--class azure_machine_learning_registry_component_container--><g id="elem_azure_machine_learning_registry_component_container"><rect codeLine="26" fill="#3D176E" height="39.7891" id="azure_machine_learning_registry_component_container" rx="2.5" ry="2.5" style="stroke:#000D19;stroke-width:0.5;" width="511" x="7" y="106.79"/><ellipse cx="22" cy="126.6845" fill="#ADD1B2" rx="11" ry="11" style="stroke:#181818;stroke-width:1.0;"/><path d="M24.9688,132.3252 Q24.3906,132.622 23.75,132.7627 Q23.1094,132.9189 22.4063,132.9189 Q19.9063,132.9189 18.5781,131.2783 Q17.2656,129.622 17.2656,126.497 Q17.2656,123.372 18.5781,121.7158 Q19.9063,120.0595 22.4063,120.0595 Q23.1094,120.0595 23.75,120.2158 Q24.4063,120.372 24.9688,120.6689 L24.9688,123.3877 Q24.3438,122.8095 23.75,122.5439 Q23.1563,122.2627 22.5313,122.2627 Q21.1875,122.2627 20.5,123.3408 Q19.8125,124.4033 19.8125,126.497 Q19.8125,128.5908 20.5,129.6689 Q21.1875,130.7314 22.5313,130.7314 Q23.1563,130.7314 23.75,130.4658 Q24.3438,130.1845 24.9688,129.6064 L24.9688,132.3252 Z " fill="#000000"/><text fill="#D9B8FF" font-family="Helvetica" font-size="17" lengthAdjust="spacing" textLength="469" x="41" y="132.5698">azure_machine_learning_registry_component_container</text></g><!--class azure_machine_learning_registry_component_version--><g id="elem_azure_machine_learning_registry_component_version"><rect codeLine="29" fill="#3D176E" height="39.7891" id="azure_machine_learning_registry_component_version" rx="2.5" ry="2.5" style="stroke:#000D19;stroke-width:0.5;" width="493" x="16" y="206.58"/><ellipse cx="31" cy="226.4745" fill="#ADD1B2" rx="11" ry="11" style="stroke:#181818;stroke-width:1.0;"/><path d="M33.9688,232.1152 Q33.3906,232.412 32.75,232.5527 Q32.1094,232.7089 31.4063,232.7089 Q28.9063,232.7089 27.5781,231.0683 Q26.2656,229.412 26.2656,226.287 Q26.2656,223.162 27.5781,221.5058 Q28.9063,219.8495 31.4063,219.8495 Q32.1094,219.8495 32.75,220.0058 Q33.4063,220.162 33.9688,220.4589 L33.9688,223.1777 Q33.3438,222.5995 32.75,222.3339 Q32.1563,222.0527 31.5313,222.0527 Q30.1875,222.0527 29.5,223.1308 Q28.8125,224.1933 28.8125,226.287 Q28.8125,228.3808 29.5,229.4589 Q30.1875,230.5214 31.5313,230.5214 Q32.1563,230.5214 32.75,230.2558 Q33.3438,229.9745 33.9688,229.3964 L33.9688,232.1152 Z " fill="#000000"/><text fill="#D9B8FF" font-family="Helvetica" font-size="17" lengthAdjust="spacing" textLength="451" x="50" y="232.3598">azure_machine_learning_registry_component_version</text></g><!--link azure_machine_learning_registry to azure_machine_learning_registry_component_container--><g id="link_azure_machine_learning_registry_azure_machine_learning_registry_component_container"><path codeLine="32" d="M262.5,47.22 C262.5,64.36 262.5,83.27 262.5,100.41 " fill="none" id="azure_machine_learning_registry-to-azure_machine_learning_registry_component_container" style="stroke:#1A83AF;stroke-width:2.0;"/><polygon fill="#1A83AF" points="262.5,106.41,266.5,97.41,262.5,101.41,258.5,97.41,262.5,106.41" style="stroke:#1A83AF;stroke-width:2.0;"/></g><!--link azure_machine_learning_registry_component_container to azure_machine_learning_registry_component_version--><g id="link_azure_machine_learning_registry_component_container_azure_machine_learning_registry_component_version"><path codeLine="33" d="M262.5,147.01 C262.5,164.15 262.5,183.06 262.5,200.2 " fill="none" id="azure_machine_learning_registry_component_container-to-azure_machine_learning_registry_component_version" style="stroke:#1A83AF;stroke-width:2.0;"/><polygon fill="#1A83AF" points="262.5,206.2,266.5,197.2,262.5,201.2,258.5,197.2,262.5,206.2" style="stroke:#1A83AF;stroke-width:2.0;"/></g><!--SRC=[dPFHQy8m4CRV-rS4V1RiP5DV1fqWsukCkRSnojbSRB19okLKTEn_NpktaRLJHz_2tU_oVT-Hv5gYG5FoNXWqIoGV-RMs9H0OaH2vtTGLZaHFAL33KRCvSvOl0dCmAEwns2Bh39h4SwwpjKNlnLNGkeDilIAtiV9uFHDONxNGSa1D2_0-OIQzt306PkHaELQgIJOlxGrbFBh15kP88dqXWy50nfCcSb7gREuVOg4FAE9mQNF7sBBPalYaphgiYS1aA-Xt_wJ7Hv1IsvMu3cfFHqzaaNxL5pb8jwjf1OKFPJmZeUDzYTDMAfoCfHhz2J-SWgEiNfs0muOmDP3bsc9Q892jr5F2bVPCU_4MHU__GzFCcTBPwbbL9ykWwsoTnhVLtz7E7eSl6Uo_zE9aF4nch_tRBXQZBh4wYdu5Ypu0]--></g></svg>

<svg xmlns="http://www.w3.org/2000/svg" width="525" height="252" viewBox="0 0 525 252"><rect width="320" height="39.789" x="102.5" y="7" fill="#3D176E" rx="2.5" ry="2.5" style="stroke:#000d19;stroke-width:.5"/><circle cx="117.5" cy="26.895" r="11" fill="#ADD1B2" style="stroke:#181818;stroke-width:1"/><path d="M120.469 32.535q-.578.297-1.219.438-.64.156-1.344.156-2.5 0-3.828-1.64-1.312-1.657-1.312-4.782t1.312-4.781q1.328-1.656 3.828-1.656.703 0 1.344.156.656.156 1.219.453v2.719q-.625-.578-1.219-.844-.594-.281-1.219-.281-1.344 0-2.031 1.078-.687 1.062-.687 3.156t.687 3.172q.688 1.062 2.031 1.062.625 0 1.219-.265.594-.281 1.219-.86z"/><text x="136.5" y="32.78" fill="#D9B8FF" font-family="Helvetica" font-size="17" textLength="278">azure_machine_learning_registry</text><rect width="511" height="39.789" x="7" y="106.79" fill="#3D176E" rx="2.5" ry="2.5" style="stroke:#000d19;stroke-width:.5"/><circle cx="22" cy="126.684" r="11" fill="#ADD1B2" style="stroke:#181818;stroke-width:1"/><path d="M24.969 132.325q-.578.297-1.219.438-.64.156-1.344.156-2.5 0-3.828-1.64-1.312-1.657-1.312-4.782t1.312-4.781q1.328-1.656 3.828-1.656.703 0 1.344.156.656.156 1.219.453v2.719q-.625-.579-1.219-.844-.594-.281-1.219-.281-1.343 0-2.031 1.078-.687 1.062-.687 3.156t.687 3.172q.688 1.062 2.031 1.062.625 0 1.219-.265.594-.281 1.219-.86z"/><text x="41" y="132.57" fill="#D9B8FF" font-family="Helvetica" font-size="17" textLength="469">azure_machine_learning_registry_component_container</text><rect width="493" height="39.789" x="16" y="206.58" fill="#3D176E" rx="2.5" ry="2.5" style="stroke:#000d19;stroke-width:.5"/><circle cx="31" cy="226.475" r="11" fill="#ADD1B2" style="stroke:#181818;stroke-width:1"/><path d="M33.969 232.115q-.578.297-1.219.438-.64.156-1.344.156-2.5 0-3.828-1.64-1.312-1.657-1.312-4.782t1.312-4.781q1.328-1.656 3.828-1.656.703 0 1.344.156.656.156 1.219.453v2.719q-.625-.578-1.219-.844-.594-.281-1.219-.281-1.343 0-2.031 1.078-.687 1.062-.687 3.156t.687 3.172q.688 1.062 2.031 1.062.625 0 1.219-.265.594-.281 1.219-.86z"/><text x="50" y="232.36" fill="#D9B8FF" font-family="Helvetica" font-size="17" textLength="451">azure_machine_learning_registry_component_version</text><path fill="none" d="M262.5 47.22v53.19" style="stroke:#1a83af;stroke-width:2"/><path fill="#1A83AF" d="m262.5 106.41 4-9-4 4-4-4z" style="stroke:#1a83af;stroke-width:2"/><path fill="none" d="M262.5 147.01v53.19" style="stroke:#1a83af;stroke-width:2"/><path fill="#1A83AF" d="m262.5 206.2 4-9-4 4-4-4z" style="stroke:#1a83af;stroke-width:2"/></svg>
